autogermania/dist/img/svg/phone.svg

<svg width="20" height="20" viewBox="0 0 20 20" xmlns="http://www.w3.org/2000/svg">
<path d="M18.3952 13.1277C17.1707 13.1277 15.9684 12.9362 14.8291 12.5597C14.2708 12.3693 13.5845 12.544 13.2438 12.8939L10.995 14.5915C8.38703 13.1994 6.78057 11.5934 5.40745 9.00505L7.0551 6.81484C7.48318 6.38734 7.63672 5.76286 7.45276 5.17693C7.07464 4.03161 6.88255 2.8299 6.88255 1.6049C6.8826 0.719948 6.16266 0 5.27776 0H1.60484C0.719948 0 0 0.719948 0 1.60484C0 11.7481 8.25198 20 18.3952 20C19.2801 20 20.0001 19.2801 20.0001 18.3952V14.7325C20 13.8477 19.2801 13.1277 18.3952 13.1277Z" />
</svg>

<svg width="20" height="20" xmlns="http://www.w3.org/2000/svg"><path d="M18.395 13.128a11.37 11.37 0 01-3.566-.568c-.558-.19-1.245-.016-1.585.334l-2.249 1.697C8.387 13.2 6.781 11.593 5.407 9.005l1.648-2.19a1.617 1.617 0 00.398-1.638 11.373 11.373 0 01-.57-3.572C6.883.72 6.163 0 5.278 0H1.605C.72 0 0 .72 0 1.605 0 11.748 8.252 20 18.395 20 19.28 20 20 19.28 20 18.395v-3.662c0-.885-.72-1.605-1.605-1.605z"/></svg>
